img/productivity.svg

<svg width="72" height="72" viewBox="0 0 72 72" fill="none" xmlns="http://www.w3.org/2000/svg">
<g id="Group 13">
<circle id="Oval" cx="44" cy="44" r="28" fill="#2C6269"/>
<path id="Combined Shape" fill-rule="evenodd" clip-rule="evenodd" d="M44.3333 4.6667C44.3333 2.093 46.4263 0 49 0C51.5737 0 53.6667 2.093 53.6667 4.6667C53.6667 7.24041 51.5737 9.33341 49 9.33341C48.1355 9.33341 47.3252 9.09726 46.6303 8.68608L39.0194 16.297C39.4306 16.992 39.6667 17.8022 39.6667 18.6667C39.6667 21.2404 37.5737 23.3334 35 23.3334C32.4263 23.3334 30.3333 21.2404 30.3333 18.6667C30.3333 18.4032 30.3552 18.1447 30.3974 17.893L25.0246 16.3608C24.2129 17.7396 22.7129 18.6667 21 18.6667C19.9493 18.6667 18.9788 18.3179 18.1981 17.73L11.0811 23.4046C11.4541 24.075 11.6667 24.8465 11.6667 25.6667C11.6667 28.2404 9.5737 30.3334 7 30.3334C4.4263 30.3334 2.3333 28.2404 2.3333 25.6667C2.3333 23.093 4.4263 21 7 21C7.90488 21 8.75035 21.2587 9.46631 21.7061L16.7404 15.9062C16.4788 15.3239 16.3333 14.6787 16.3333 14C16.3333 11.4263 18.4263 9.3333 21 9.3333C23.5737 9.3333 25.6667 11.4263 25.6667 14C25.6667 14.0389 25.6662 14.0777 25.6653 14.1165L31.3656 15.742C32.2217 14.6803 33.5327 14 35 14C35.8645 14 36.6748 14.2361 37.3697 14.6473L44.9806 7.03637C44.5694 6.34145 44.3333 5.5312 44.3333 4.6667ZM19.2225 15.5101C19.209 15.491 19.1948 15.4722 19.18 15.4537C19.1649 15.4348 19.1494 15.4164 19.1334 15.3987C18.8404 15.0086 18.6667 14.524 18.6667 14C18.6667 12.7143 19.712 11.6667 21 11.6667C22.288 11.6667 23.3333 12.7144 23.3333 14C23.3333 15.2857 22.288 16.3333 21 16.3333C20.2882 16.3333 19.6506 16.0133 19.2225 15.5101ZM8.61291 23.982C8.1938 23.5805 7.62552 23.3334 7 23.3334C5.712 23.3334 4.6667 24.381 4.6667 25.6667C4.6667 26.9523 5.712 28 7 28C8.288 28 9.3333 26.9523 9.3333 25.6667C9.3333 25.0421 9.08657 24.4737 8.68515 24.0543C8.66023 24.0314 8.63612 24.0073 8.61291 23.982ZM47.3975 6.3613C47.3831 6.34522 47.3681 6.32945 47.3527 6.314C47.3373 6.29859 47.3215 6.28369 47.3055 6.26933C46.9096 5.85087 46.6667 5.28643 46.6667 4.6667C46.6667 3.381 47.712 2.33341 49 2.33341C50.288 2.33341 51.3333 3.38111 51.3333 4.6667C51.3333 5.9523 50.288 7 49 7C48.3796 7 47.8155 6.75694 47.3975 6.3613ZM52.5 18.6667C53.144 18.6667 53.6667 19.1893 53.6667 19.8334V53.6667H54.8333C55.4773 53.6667 56 54.1893 56.0001 54.8333C56.0001 55.4773 55.4774 56 54.8334 56H52.5159L52.5 56.0001H45.5L45.4841 56H38.5159L38.5 56.0001H31.5L31.4841 56H24.5159L24.5 56.0001H17.5L17.4841 56H10.5H3.5H1.1667C0.522703 56 0 55.4773 0 54.8333C0 54.1893 0.522703 53.6667 1.1667 53.6667H2.3333V40.8334C2.3333 40.1894 2.856 39.6667 3.5 39.6667H10.5C11.144 39.6667 11.6667 40.1893 11.6667 40.8333V53.6667H16.3333V29.1667C16.3333 28.5227 16.856 28 17.5 28H24.5C25.144 28 25.6667 28.5227 25.6667 29.1667V53.6667H30.3333V33.8334C30.3333 33.1894 30.856 32.6667 31.5 32.6667H38.5C39.144 32.6667 39.6667 33.1893 39.6667 33.8334V53.6667H44.3333V19.8334C44.3333 19.1894 44.856 18.6667 45.5 18.6667H52.5ZM51.3333 21V53.6667H46.6666V21H51.3333ZM37.3333 53.6667V35H32.6666V53.6667H37.3333ZM18.6666 30.3333H23.3333V53.6667H18.6666V30.3333ZM9.33341 53.6667V42H4.6667V53.6667H9.3333H9.33341ZM35 21C33.712 21 32.6667 19.9523 32.6667 18.6667C32.6667 17.381 33.712 16.3334 35 16.3334C36.288 16.3334 37.3333 17.3811 37.3333 18.6667C37.3333 19.9523 36.288 21 35 21Z" fill="#79C8C7"/>
</g>
</svg>

<svg width="72" height="72" fill="none" xmlns="http://www.w3.org/2000/svg"><circle cx="44" cy="44" r="28" fill="#2C6269"/><path fill-rule="evenodd" clip-rule="evenodd" d="M44.333 4.667A4.671 4.671 0 0 1 49 0a4.671 4.671 0 0 1 4.667 4.667A4.671 4.671 0 0 1 49 9.333a4.64 4.64 0 0 1-2.37-.647l-7.61 7.611a4.64 4.64 0 0 1 .647 2.37A4.671 4.671 0 0 1 35 23.333a4.671 4.671 0 0 1-4.603-5.44l-5.372-1.532A4.669 4.669 0 0 1 21 18.667a4.643 4.643 0 0 1-2.802-.937l-7.117 5.675a4.64 4.64 0 0 1 .586 2.262A4.671 4.671 0 0 1 7 30.333a4.671 4.671 0 0 1-4.667-4.666A4.671 4.671 0 0 1 7 21c.905 0 1.75.259 2.466.706l7.274-5.8A4.671 4.671 0 0 1 21 9.333a4.671 4.671 0 0 1 4.665 4.784l5.7 1.625a4.66 4.66 0 0 1 6.005-1.095l7.61-7.61a4.639 4.639 0 0 1-.647-2.37zM19.223 15.51a1.188 1.188 0 0 0-.09-.111A2.322 2.322 0 0 1 18.667 14 2.336 2.336 0 0 1 21 11.667 2.336 2.336 0 0 1 23.333 14 2.336 2.336 0 0 1 21 16.333c-.712 0-1.35-.32-1.777-.823zm-10.61 8.472A2.325 2.325 0 0 0 7 23.333a2.336 2.336 0 0 0-2.333 2.334A2.336 2.336 0 0 0 7 28a2.336 2.336 0 0 0 2.333-2.333 2.326 2.326 0 0 0-.72-1.685zm38.785-17.62a1.22 1.22 0 0 0-.093-.093 2.326 2.326 0 0 1-.638-1.602A2.336 2.336 0 0 1 49 2.333a2.336 2.336 0 0 1 2.333 2.334A2.336 2.336 0 0 1 49 7c-.62 0-1.184-.243-1.602-.639zM52.5 18.666c.644 0 1.167.522 1.167 1.166v33.834h1.166a1.167 1.167 0 0 1 0 2.333H1.167a1.167 1.167 0 0 1 0-2.333h1.166V40.833c0-.644.523-1.166 1.167-1.166h7c.644 0 1.167.522 1.167 1.166v12.834h4.666v-24.5c0-.644.523-1.167 1.167-1.167h7c.644 0 1.167.523 1.167 1.167v24.5h4.666V33.833c0-.644.523-1.166 1.167-1.166h7c.644 0 1.167.522 1.167 1.166v19.834h4.666V19.833c0-.644.523-1.166 1.167-1.166h7zM51.333 21v32.667h-4.666V21h4.666zm-14 32.667V35h-4.666v18.667h4.666zM18.667 30.333h4.666v23.334h-4.666V30.333zM9.333 53.667V42H4.667v11.667h4.666zM35 21a2.336 2.336 0 0 1-2.333-2.333A2.336 2.336 0 0 1 35 16.333a2.336 2.336 0 0 1 2.333 2.334A2.336 2.336 0 0 1 35 21z" fill="#79C8C7"/></svg>
